X:13021
T:Monk's March
R:March
C:Trad.
O:England
M:2/4
L:1/16
Q:1/4=120
K:G
D2E2F2|"G"G4G2B2|"D7"A4A2c2|"G"B2d2g2e2|"G"d4d2c2|
"G"B2d2B2G2|"D7"A2c2A2F2|"G"G3A "C"B2A2|"G"G2:|
z2B2c2|"G"d4d2c2|"Bm"B4B4|"C"c3d c2B2|"D7"A4A4|
"G"d3e d2c2|"Bm"B4B4|"G"c2d2e2c2|"D7"A2c2B2A2|
"G"G4G2B2|"D7"A4A2c2|"G"B2d2g2e2|"G"d4d2c2|
"G"B2d2B2G2|"D7"A2c2A2F2|"G"G3A "C"B2A2|"G"G2|]

